share/icons/Flat-Remix-Blue-Dark/mimetypes/scalable/text-x-changelog.svg

<svg xmlns="http://www.w3.org/2000/svg" xmlns:xlink="http://www.w3.org/1999/xlink" width="36pt" height="36pt" version="1.1" viewBox="0 0 36 36"> <defs> <clipPath id="clip1"> <path d="M 20 2 L 31 2 L 31 13 L 20 13 Z M 20 2"/> </clipPath> <clipPath id="clip2"> <path d="M 20.515625 2.625 L 30.328125 12.4375 L 22.023438 12.4375 C 21.292969 12.4375 20.515625 11.660156 20.515625 10.929688 Z M 20.515625 2.625"/> </clipPath> <image id="image6" width="36" height="36" xlink:href="data:image/png;base64,iVBORw0KGgoAAAANSUhEUgAAACQAAAAkCAYAAADhAJiYAAAABmJLR0QA/wD/AP+gvaeTAAAAmklEQVRYhe3T0QqCQBBG4aOtYEoUvf9Lildltl00C4tkbBeTIP+BAUEYP1YW1Pcqh53B9kbgaVPcwQF0tAmGSrMZ6AKcDQXw+AUVHEAtcAUaewYYgYmC3+cBCkAPnDJQMcoDVNnebgEqQnmAclTz4d0I3P4JStc9AjXvk4qLWQV53LLeEOl05gw4A3dgcPiuUkoppZRSSqk99gLWvSJpuDnlsAAAAABJRU5ErkJggg=="/> </defs> <g> <path style="fill:rgb(90.196%,90.196%,90.196%)" d="M 7.347656 3.152344 C 6.675781 3.152344 6.042969 3.785156 6.042969 4.457031 L 6.042969 31.847656 C 6.042969 32.480469 6.714844 33.152344 7.347656 33.152344 L 28.21875 33.152344 C 28.851562 33.152344 29.523438 32.480469 29.523438 31.847656 L 29.523438 11.632812 L 21.042969 3.152344 Z M 7.347656 3.152344"/> <g clip-path="url(#clip1)"> <g clip-path="url(#clip2)"> <use xlink:href="#image6"/> </g> </g> <path style="fill:rgb(100.000%,100.000%,100.000%)" d="M 21.042969 3.152344 L 29.523438 11.632812 L 22.347656 11.632812 C 21.714844 11.632812 21.042969 10.960938 21.042969 10.328125 Z M 21.042969 3.152344"/> <path style="fill:rgb(0%,0%,0%);fill-opacity:0.352941" d="M 14.085938 14.738281 L 14.085938 15.390625 L 24.523438 15.390625 L 24.523438 14.738281 Z M 14.085938 14.738281"/> <path style="fill:rgb(0%,0%,0%);fill-opacity:0.352941" d="M 14.085938 16.695312 L 14.085938 17.347656 L 24.523438 17.347656 L 24.523438 16.695312 Z M 14.085938 16.695312"/> <path style="fill:rgb(0%,0%,0%);fill-opacity:0.352941" d="M 14.085938 18.652344 L 14.085938 19.304688 L 24.523438 19.304688 L 24.523438 18.652344 Z M 14.085938 18.652344"/> <path style="fill:rgb(0%,0%,0%);fill-opacity:0.352941" d="M 14.085938 20.609375 L 14.085938 21.261719 L 24.523438 21.261719 L 24.523438 20.609375 Z M 14.085938 20.609375"/> <path style="fill:rgb(0%,0%,0%);fill-opacity:0.352941" d="M 14.085938 22.566406 L 14.085938 23.21875 L 24.523438 23.21875 L 24.523438 22.566406 Z M 14.085938 22.566406"/> <path style="fill:rgb(0%,0%,0%);fill-opacity:0.352941" d="M 14.085938 24.523438 L 14.085938 25.175781 L 24.523438 25.175781 L 24.523438 24.523438 Z M 14.085938 24.523438"/> <path style="fill:rgb(0%,0%,0%);fill-opacity:0.352941" d="M 12.78125 15.066406 C 12.78125 15.425781 12.492188 15.71875 12.128906 15.71875 C 11.769531 15.71875 11.476562 15.425781 11.476562 15.066406 C 11.476562 14.703125 11.769531 14.414062 12.128906 14.414062 C 12.492188 14.414062 12.78125 14.703125 12.78125 15.066406 Z M 12.78125 15.066406"/> <path style="fill:rgb(0%,0%,0%);fill-opacity:0.352941" d="M 12.78125 17.023438 C 12.78125 17.382812 12.492188 17.675781 12.128906 17.675781 C 11.769531 17.675781 11.476562 17.382812 11.476562 17.023438 C 11.476562 16.660156 11.769531 16.371094 12.128906 16.371094 C 12.492188 16.371094 12.78125 16.660156 12.78125 17.023438 Z M 12.78125 17.023438"/> <path style="fill:rgb(0%,0%,0%);fill-opacity:0.352941" d="M 12.78125 18.976562 C 12.78125 19.339844 12.492188 19.628906 12.128906 19.628906 C 11.769531 19.628906 11.476562 19.339844 11.476562 18.976562 C 11.476562 18.617188 11.769531 18.324219 12.128906 18.324219 C 12.492188 18.324219 12.78125 18.617188 12.78125 18.976562 Z M 12.78125 18.976562"/> <path style="fill:rgb(0%,0%,0%);fill-opacity:0.352941" d="M 12.78125 20.933594 C 12.78125 21.296875 12.492188 21.585938 12.128906 21.585938 C 11.769531 21.585938 11.476562 21.296875 11.476562 20.933594 C 11.476562 20.574219 11.769531 20.28125 12.128906 20.28125 C 12.492188 20.28125 12.78125 20.574219 12.78125 20.933594 Z M 12.78125 20.933594"/> <path style="fill:rgb(0%,0%,0%);fill-opacity:0.352941" d="M 12.78125 22.890625 C 12.78125 23.25 12.492188 23.542969 12.128906 23.542969 C 11.769531 23.542969 11.476562 23.25 11.476562 22.890625 C 11.476562 22.53125 11.769531 22.238281 12.128906 22.238281 C 12.492188 22.238281 12.78125 22.53125 12.78125 22.890625 Z M 12.78125 22.890625"/> <path style="fill:rgb(0%,0%,0%);fill-opacity:0.352941" d="M 12.78125 24.847656 C 12.78125 25.207031 12.492188 25.5 12.128906 25.5 C 11.769531 25.5 11.476562 25.207031 11.476562 24.847656 C 11.476562 24.488281 11.769531 24.195312 12.128906 24.195312 C 12.492188 24.195312 12.78125 24.488281 12.78125 24.847656 Z M 12.78125 24.847656"/> </g> </svg>

<svg width="36pt" height="36pt" version="1.1" viewBox="0 0 36 36" xmlns="http://www.w3.org/2000/svg"><defs><filter id="a" x="-.192" y="-.192" width="1.384" height="1.384" color-interpolation-filters="sRGB"><feGaussianBlur stdDeviation="0.67843748"/></filter></defs><path d="m7.3477 3.9022c-0.67188 0-1.3047 0.63281-1.3047 1.3047v27.391c0 0.63281 0.67188 1.3047 1.3047 1.3047h20.871c0.63281 0 1.3047-0.67188 1.3047-1.3047v-20.215l-8.4805-8.4805z" opacity=".3"/><path d="m7.3477 3.1523c-0.67188 0-1.3047 0.63281-1.3047 1.3047v27.391c0 0.63281 0.67188 1.3047 1.3047 1.3047h20.871c0.63281 0 1.3047-0.67188 1.3047-1.3047v-20.215l-8.4805-8.4805z" fill="#e5e5e5"/><path d="m20.668 3.5272 8.4805 8.4805h-7.1758c-0.63281 0-1.3047-0.67187-1.3047-1.3047z" filter="url(#a)" opacity=".2"/><path d="m21.043 3.1523 8.4805 8.4805h-7.1758c-0.63281 0-1.3047-0.67187-1.3047-1.3047z" fill="#fff"/><path d="m14.086 14.738v0.65234h10.438v-0.65234z" fill-opacity=".35294"/><path d="m14.086 16.695v0.65234h10.438v-0.65234z" fill-opacity=".35294"/><path d="m14.086 18.652v0.65234h10.438v-0.65234z" fill-opacity=".35294"/><path d="m14.086 20.609v0.65234h10.438v-0.65234z" fill-opacity=".35294"/><path d="m14.086 22.566v0.65234h10.438v-0.65234z" fill-opacity=".35294"/><path d="m14.086 24.523v0.65234h10.438v-0.65234z" fill-opacity=".35294"/><path d="m12.781 15.066c0 0.35938-0.28906 0.65234-0.65234 0.65234-0.35938 0-0.65234-0.29297-0.65234-0.65234 0-0.36328 0.29297-0.65234 0.65234-0.65234 0.36328 0 0.65234 0.28906 0.65234 0.65234z" fill-opacity=".35294"/><path d="m12.781 17.023c0 0.35937-0.28906 0.65234-0.65234 0.65234-0.35938 0-0.65234-0.29297-0.65234-0.65234 0-0.36328 0.29297-0.65234 0.65234-0.65234 0.36328 0 0.65234 0.28906 0.65234 0.65234z" fill-opacity=".35294"/><path d="m12.781 18.977c0 0.36328-0.28906 0.65234-0.65234 0.65234-0.35938 0-0.65234-0.28906-0.65234-0.65234 0-0.35937 0.29297-0.65234 0.65234-0.65234 0.36328 0 0.65234 0.29297 0.65234 0.65234z" fill-opacity=".35294"/><path d="m12.781 20.934c0 0.36328-0.28906 0.65234-0.65234 0.65234-0.35938 0-0.65234-0.28906-0.65234-0.65234 0-0.35938 0.29297-0.65234 0.65234-0.65234 0.36328 0 0.65234 0.29297 0.65234 0.65234z" fill-opacity=".35294"/><path d="m12.781 22.891c0 0.35938-0.28906 0.65234-0.65234 0.65234-0.35938 0-0.65234-0.29297-0.65234-0.65234s0.29297-0.65234 0.65234-0.65234c0.36328 0 0.65234 0.29297 0.65234 0.65234z" fill-opacity=".35294"/><path d="m12.781 24.848c0 0.35938-0.28906 0.65234-0.65234 0.65234-0.35938 0-0.65234-0.29297-0.65234-0.65234s0.29297-0.65234 0.65234-0.65234c0.36328 0 0.65234 0.29297 0.65234 0.65234z" fill-opacity=".35294"/></svg>
